!!!!SEGMENT: pl-wtm--r-2526_hertz-michal--romance.krn
!!!cenid: 18xx:3096
!!!COM: Hertz, Michał
!!!COM-rismid: pe41023359
!!!CDT: 1844/09/28-~1918
!!!CNT: Polish
!!!OTL: Romance
!!!PDT:
!!!AGN:
!!!SMS-siglum: PL-Wtm
!!!SMS-shelfmark: R 2526
!!!SMS-shelfwork: W
!!!SMS-variant:
!!!SMS-altvar:
!!!NIFC-rismid: 1001086575
!!!URL-scan: http://repozytorium.nifc.pl/skany/pl-wtm-nut--r2526
!!!ONB-nifc: UWAGA: skany 0005 i 0007
!!!OMD: Andante con grazia
**kern	**fing	**kern	**fing	**dynam
*part1	*part1	*part1	*part1	*part1
*staff2	*staff2	*staff1	*staff1	*
*Ipiano	*	*Ipiano	*	*
*I"Pianoforte	*	*I"Pianoforte	*	*
*clefF4	*	*clefG2	*	*
*k[f#c#]	*	*k[f#c#]	*	*
*D:	*	*D:	*	*
*M4/4	*	*M4/4	*	*
*met(c)	*	*met(c)	*	*
*all\right	*below	*all\right	*	*
=1	=1	=1	=1	=1
*^	*	*	*	*
*2\right	*	*	*	*	*
!	!	!	!	!	!LO:DY:rj
8r	2D\	.	8r	.	p
4d 4A/	.	.	8f#'/L	.	<
.	.	.	8f#'/	.	.
8d 8A/	.	.	8f#'/J	.	.
2ryy	8r	.	[>2a/	.	[
!	!	!	!	!	!LO:HP:b=2
.	8dL 8A 8F#'\	.	.	.	<
.	8d 8A 8F#'\	.	.	.	.
.	8dJ 8A 8F#'\	.	.	.	.
*v	*v	*	*	*	*
=2	=2	=2	=2	=2
*	*	*^	*	*
2.d 2.G 2.E\	.	8a/L]	2.ryy	.	[ <
.	.	8a'/	.	.	.
.	.	8a'/	.	.	.
.	.	8a'/J	.	.	.
.	.	(4.b/	.	.	[
[4G [4E [4AA\	.	.	[4c#\	.	sf
.	.	8a/)	.	.	.
=3	=3	=3	=3	=3	=3
*^	*	*	*	*	*
8G]L 8E/]	1AA_	.	[1a	8c#\L]	.	.
!	!	!	!	!	!	!LO:HP:b=2
8F#'</	.	.	.	8d 8A'>\	.	<
8F#'</	.	.	.	8d 8A'>\	.	.
8F#'</J	.	.	.	8dJ 8A'>\	.	.
*	*	*	*2\right	*	*	*
(4G\	.	.	.	2A\	.	.
[4F#\)	.	.	.	.	.	.
=4	=4	=4	=4	=4	=4	=4
8F#/L]	2.AA\]	.	2.a/]	8d\L	.	[ <
(<8F# 8D#X/	.	2 3	.	(>8B#X\	.	.
8G 8E/	.	1 3	.	8c#\	.	.
8AJ 8F#/	.	1 2	.	[>8d\J	.	[
.	.	.	.	.	.	>
4G 4E/)	.	1 3	.	8d\L]	.	.
.	.	.	.	8c#\J)	.	]
4r	4ryy	.	4r	4ryy	.	.
*	*	*	*v	*v	*	*
!!LO:LB:g=original
=5	=5	=5	=5	=5	=5
!	!	!	!	!	!LO:DY:rj
8r	2D\	.	8r	.	p
4d 4A/	.	.	8f#'/L	3	<
.	.	.	8f#'/	2	.
8d 8A/	.	.	8f#'/J	1	.
2ryy	8r	.	4.a/	.	.
!	!	!	!	!	!LO:HP:b=2
.	8dL 8A 8F#'\	.	.	.	[ <
.	8d 8A 8F#'\	.	.	.	.
.	8dJ 8A 8F#'\	.	[>8a/	.	.
*v	*v	*	*	*	*
=6	=6	=6	=6	=6
*	*	*Xtuplet	*	*
8d 8G 8E\	.	12a/L]	.	[
.	.	12a'/	2	.
4g 4c# 4A\	.	.	.	.
.	.	12a'/J	1	<
*	*	*tuplet	*	*
!	!	!LO:TUP:a:problem:klamra łukowa	!	!
.	.	12cc#\L	3	.
.	.	12b\	2	.
8e 8A 8G\	.	.	.	.
.	.	12a\J	1	.
!	!	!LO:TUP:a:problem:klamra łukowa	!	!
8d 8A 8F#\	.	12dd\L	4	.
.	.	12dd\	2	.
4f# 4d 4A\	.	.	.	.
.	.	12dd\J	1	.
!	!	!LO:TUP:a:problem:klamra łukowa	!	!
.	.	12ff#\L	3	.
.	.	12ee\	2	.
8f# 8d 8A\	.	.	.	.
.	.	12dd\J	1	[
=7	=7	=7	=7	=7
*	*	*^	*	*
8f# 8d 8A#X\	.	8ddd\	8ryy	5	sf
(4F#\	.	8a#X/L	4d 4A#X\	.	.
.	.	8a#/	.	.	.
8FF#/)	.	8a#/J	8d 8A#\	.	.
4.GG/	.	4cc#/	8rc	.	.
!	!	!	!LO:TX:a:t=L.	!	!LO:HP:b=2
.	.	.	8dL 8c#\	.	<
.	.	8b/L	8d 8B\	.	.
!	!	!	!LO:TX:b:t=R.	!	!
8G\	.	[8b/J	[8dJ [8B\	.	.
!!LO:LB:g=original
=8	=8	=8	=8	=8	=8
!	!	!	!LO:TX:b:t=P:problem:koniec ligatury na górze	!	!
(4.G\	.	8b/]	8d]L 8B\]	.	[
.	.	(4b/	8d 8B\	.	.
.	.	.	8d#X 8B\	.	.
!	!	!	!	!	!LO:HP:b=2
8F#\	.	8a/)	8d#J 8B\	.	>
4E\)	.	(<8a/L	8eL 8B\	.	.
.	.	8g/J)	8e 8B\	.	.
!	!	!	!LO:S:s=1:note:problem:note-level slur	!	!
4AA/	.	4g/	(>8dn 8B\	.	.
.	.	.	8c#J 8A\)	.	.
*	*	*v	*v	*	*
=9	=9	=9	=9	=9
*^	*	*	*	*
8r	2D\	.	8r	.	] p
4d 4A/	.	.	8f#'/L	.	.
.	.	.	8f#'/	.	.
8d 8A/	.	.	8f#'/J	.	.
2ryy	8r	.	4.a/	.	.
!	!	!	!	!	!LO:HP:b=2
.	8dL 8A 8F#'\	.	.	.	<
.	8d 8A 8F#'\	.	.	.	.
.	8dJ 8A 8F#'\	.	8a/	.	.
*v	*v	*	*	*	*
=10	=10	=10	=10	=10
*	*	*Xbrackettup	*	*
!	!	!LO:TUP:a:problem:klamra łukowa	!	!
8d 8G 8E\	.	12r	.	[
.	.	12a'\L	.	.
4g 4c# 4A\	.	.	.	.
.	.	12a'\J	.	.
!	!	!LO:TUP:a:problem:klamra łukowa	!	!
.	.	(12cc#\L	.	.
.	.	12b\	.	.
8e 8c# 8A 8G\	.	.	.	.
.	.	12a\J	.	.
*Xbrackettup	*	*	*	*
!LO:TUP:a:problem:klamra łukowa	!	!LO:TUP:a:problem:klamra łukowa	!	!
12r	.	6ee\	.	.
12eL 12c# 12A 12G\	.	.	.	.
12dJ 12A 12F#\	.	12dd\)	.	.
!LO:TUP:a:problem:klamra łukowa	!	!	!	!
12f#L 12d 12A\	.	8r	.	.
12e 12A 12G\	.	.	.	.
.	.	[8dd\	.	.
12dJ 12A 12F#\	.	.	.	.
!!LO:LB:g=original
=11	=11	=11	=11	=11
4.d 4.A 4.F#\	.	8dd@\L]	.	.
.	.	(8cc# 8c#\	.	.
.	.	8dd 8d\	.	.
8A 8BB#X\	.	8dd#XJ 8d#X\	.	.
4A 4C#\	.	8eeL 8e\	.	.
.	.	8a\)	.	.
(8F#X\L	.	(8a 8c#\	.	.
8AJ 8BBn\)	.	8dd#J 8d#\)	.	.
=12	=12	=12	=12	=12
*	*	*^	*	*
4A 4E\	.	(4cc#/	(8c#\	.	.
.	.	.	4e\	.	.
8EE\L	.	8.b/L	.	.	.
8G#XJ 8E\	.	.	8d\)	.	.
.	.	16a/Jk	.	.	.
8AL 8E 8AA\	.	8a 8c#/)	2ryy	.	<
*	*above	*	*	*	*
8A\	2	8r	.	.	.
8A\	3	4r	.	.	.
8G#\J	4	.	.	.	.
*	*	*v	*v	*	*
=13	=13	=13	=13	=13
*^	*^	*	*	*
8r	2Gn^\	.	5	8r	.	[
4e 4c# 4A/	.	.	.	(8ccc#L 8cc#\	.	.
.	.	.	.	8bb 8b\	.	p
8e 8c# 8A/	.	.	.	8aaJ 8a\	.	.
8r	2F#^\	.	.	8dd\L)	.	.
4f# 4d 4A/	.	.	.	(8ff#\	3	.
.	.	.	.	8ee\	2	pp
8f# 8d 8A/	.	.	.	8dd\J)	1	.
*	*	*v	*v	*	*	*
=14	=14	=14	=14	=14	=14
.	.	.	(8qgg/	.	.
8r	(2E\	.	(8a/L)	.	.
4g 4c# 4A/	.	.	8a#X/	.	.
.	.	.	8.b/	.	.
8c# 8A/	.	.	.	.	.
.	.	.	16g/Jk)	.	.
8r	4.D\)	.	(4g/	.	.
(4d 4A/	.	.	.	.	.
.	.	.	4f#/)	.	.
8cn 8A/)	8D#X\	.	.	.	.
!!LO:LB:g=original
=15	=15	=15	=15	=15	=15
8r	2A^\	.	8r	.	.
4f# 4d#X 4B/	.	.	(8ddd#XL 8dd#X\	.	.
.	.	.	8ccc# 8cc#\	.	p
8f# 48d# 8B/	.	.	8bbJ 8b\	.	.
8r	2G#X^\	.	8ee\L)	.	.
4g#X 4e 4B/	.	.	(8gg#X\	.	.
.	.	.	8ff#\	.	pp
8g# 8e 8B/	.	.	8ee\J)	.	.
=16	=16	=16	=16	=16	=16
.	.	.	(8qaa/	.	.
8r	(2F#\	.	(8b\L)	.	.
4a 4d#X 4B/	.	.	8b#X\	.	.
.	.	.	8.cc#\	.	.
8d# 8B/	.	.	.	.	.
.	.	.	16a\Jk)	.	.
8r	4.E\)	.	(4a/	.	.
(4e 4B/	.	.	.	.	.
.	.	.	4g#X/)	.	.
8dn 8B/)	8E#X\	.	.	.	.
=17	=17	=17	=17	=17	=17
!	!	!	!	!	!LO:DY:color=purple:rj
!	!	!	!LO:TX:a:i:t=acce-le-ran-do e crescendo:color=purple:problem:dynamics with extention lines	!	!LO:HP:a:t=acce-le-ran-do e crescendo:color=purple
8r	(2E#X\	.	8r	.	f <
4c# 4B/	.	.	(8cc#/L	.	.
.	.	.	8g#X/	.	.
8c# 8B/	.	.	8a/J)	.	.
2ryy	8F#\L)	.	(8a/L	.	.
.	(8c#\	.	8a#X/J)	.	.
.	8E#X\	.	4r	.	.
.	8F#\J)	.	.	.	.
!!LO:LB:g=original
=18	=18	=18	=18	=18	=18
8r	(2F#\	.	8r	.	.
4d 4cn/	.	.	(8dd\L	.	.
.	.	.	8a\	.	.
8d 8c/	.	.	8a#X\J)	.	.
2ryy	8G\L)	.	(8a#\L	.	.
.	(8d\	.	8b\J)	.	.
.	8F#\	.	4r	.	[[
.	8G\J)	.	.	.	.
*v	*v	*	*	*	*
=19	=19	=19	=19	=19
!	!	!LO:TX:a:i:t=a Tempo:color=purple	!	!LO:DY:color=purple:rj
(8BL 8A 8F#\	.	8r	.	ff
8BJ 8G 8E\)	.	8bb 8b\	.	.
8r	.	(2ggg 2gg\	.	.
(8B\	.	.	.	.
8g\L)	.	.	.	.
8E\	.	.	.	.
8G\	.	8fff#L 8ff#'\)	.	.
[8B-X\J	.	8eeeJ 8ee'\	.	.
=20	=20	=20	=20	=20
*^	*	*	*	*
!	!	!	!LO:TX:a:i:t=rallentando.:color=purple	!	!
4.g 4.e/	8B-X\L]	.	(4.ddd 4.dd\	.	.
.	8B-'>\	.	.	.	.
.	8B-'>\	.	.	.	.
8g 8e/	8A\J	.	8ccc# 8cc#\	.	.
!	!	!	!LO:N:vis=4	!	!
8a/	8g 8c#\	.	8eee 8ee\)	.	.
.	.	.	8qee/	.	.
*	*	*	*rscale:2	*	*
*	*	*	*Xtuplet	*	*
8r	8ryy	.	(88aa;\LLL	.	p
.	.	.	88gg#X\	.	>
.	.	.	88ggn\	.	.
.	.	.	88ff#\	.	.
.	.	.	88ffn\	.	.
.	.	.	88ee\	.	.
.	.	.	88dd\	.	.
.	.	.	88cc#\)	.	.
.	.	.	88ccn'\	.	.
.	.	.	88b'\	.	.
.	.	.	88b-X'\JJJ	.	.
*	*	*	*rscale:1	*	*
*	*	*	*tuplet	*	*
!	!	!	!LO:TUP:b:problem:klamra łukowa	!	!
4r	4ryy	.	12a'/L	.	.
.	.	.	12g#X'/	.	.
.	.	.	12gn'/J	.	]]
!!LO:PB:g=original
=21	=21	=21	=21	=21	=21
!	!	!	!LO:TX:a:i:t=a Tempo.:color=purple	!	!LO:DY:rj
8r	2D\	.	8r	.	p
4d 4A/	.	.	8f#/L	.	.
.	.	.	.	.	<
.	.	.	8f#/	.	.
8d 8A/	.	.	8f#'/J	.	.
2ryy	8r	.	4.a/	.	.
!	!	!	!	!	!LO:HP:b=2
.	8dL 8A 8F#\	.	.	.	[ <
.	8d 8A 8F#\	.	.	.	.
.	8dJ 8A 8F#\	.	[>8a/	.	.
*v	*v	*	*	*	*
=22	=22	=22	=22	=22
*	*	*Xtuplet	*	*
8d 8G 8E\	.	12a\L]	.	[
.	.	(12a'\	.	.
4g 4c# 4A\	.	.	.	.
.	.	12a'\J	.	.
.	.	12cc#\L	.	.
.	.	12b\	.	.
8e 8A 8G@\	.	.	.	.
.	.	12a\J	.	<
8d@ 8A@ 8F#\	.	12dd\L)	.	.
.	.	(12dd'\	.	.
4f# 4d 4A\	.	.	.	.
.	.	12dd'\J	.	.
.	.	12ff#\L	.	.
.	.	12ee\	.	.
8f# 8d 8A\	.	.	.	.
.	.	12dd\J	.	.
=23	=23	=23	=23	=23
*	*	*^	*	*
8f# 8d 8A#X\	.	8ryy	8ddd\)	.	.
!	!	!	!LO:ACC:color=purple	!	!
(4F#\	.	8a#X/L	4d 4A#X\	.	[
.	.	8a#/	.	.	.
8FF#/)	.	8a#/J	8d 8A#\	.	.
!	!	!	!	!	!LO:HP:b=2
4.GG/	.	(4cc#/	8rc	.	<
.	.	.	8dL 8c#\	.	.
.	.	8b/L)	8d 8B\	.	.
8G\	.	[8b/J	8dJ 8B\	.	.
=24	=24	=24	=24	=24	=24
(4.G\	.	8b/]	8dL 8B\	.	.
.	.	4b/	8d 8B\	.	.
.	.	.	8d#X 8B\	.	.
8F#\	.	8a/	8d#J 8B\	.	.
4E\)	.	(8a/L	8eL 8B\	.	[
.	.	8g/J)	8e 8B\	.	.
!	!	!	!LO:S:s=1:note:problem:note-level slur	!	!
4AA/	.	4g/	(>8dn 8B\	.	.
.	.	.	8c#J) 8A\	.	.
*	*	*v	*v	*	*
!!LO:LB:g=original
=25	=25	=25	=25	=25
*^	*	*	*	*
!	!	!	!LO:TX:a:i:t=un poco piu animato:color=purple	!	!LO:DY:color=purple
8r	2D\	.	8r	.	f
4d 4A/	.	.	8f#'/L	.	.
.	.	.	.	.	<
.	.	.	8f#'/	.	.
8d 8A/	.	.	8f#'/J	.	.
2ryy	8r	.	4.a/	.	.
!	!	!	!	!	!LO:HP:b=2
.	8dL 8A 8F#'\	.	.	.	[ <
.	8d 8A 8F#'\	.	.	.	.
.	8dJ 8A 8F#'\	.	[>8a/	.	[[
*v	*v	*	*	*	*
=26	=26	=26	=26	=26
8d 8G 8E\	.	12a\L]	.	.
.	.	12a'\	.	.
4g 4c# 4A\	.	.	.	.
.	.	12a'\J	.	.
.	.	(12cc#\L	.	.
.	.	12b\	.	.
8e 8c# 8A 8G\	.	.	.	.
.	.	12a\J	.	.
*	*	*tuplet	*	*
!LO:TUP:a:problem:klamra łukowa:color=purple	!LO:TUP:b:problem:klamra łukowa:color=purple	!	!	!
12r	.	6ee\	.	.
12c#L 12A 12G\	.	.	.	.
12dJ 12A 12F#\	.	12dd\)	.	.
!LO:TUP:a:problem:klamra łukowa	!	!	!	!
12f#L 12d 12A\	.	8.r	.	.
12e 12A@ 12G@\	.	.	.	.
12dJ 12A@ 12F#@\	.	.	.	.
.	.	16ddd 16dd\	.	.
=27	=27	=27	=27	=27
*	*	*^	*	*
*	*	*	*^	*	*
!	!	!LO:TX:t=P:problem:w tt. 27-28 wszystko fioletowym tuszem	!	!	!	!LO:DY:color=purple
8A#X@ 8AA#X@\	.	8fff#@L 8ff#'@\	4ryy	2ryy	.	f
!	!	!LO:T:color=purple	!	!	!	!LO:DY:color=purple
8r@	.	[8ff#@J [<8ee@ [<8cc#@ [<8f#@\	.	.	.	sf
!	!	!LO:N:vis=8.	!	!	!	!
!LO:S:color=purple	!	!LO:TX:a:i:t=con fuoco:color=purple	!	!	!	!LO:DY:b=2:color=purple
(4AA#@ (4AAA#X@/	.	16.ff#@]LL 16.ee@] 16.cc#@] 16.f#@\]	4ryy	.	.	sf
!	!	!LO:N:vis=16	!	!	!	!
.	.	32ee@JJk 32e@\	.	.	.	.
!	!	!LO:TUP:a:problem:klamra łukowa:color=purple	!	!	!	!
.	.	24ee@LL 24e@\	.	.	.	.
.	.	24dd@ 24d@\	.	.	.	.
.	.	24cc#@JJ 24c#@\	.	.	.	.
!LO:T:color=purple	!	!	!LO:S:s=2:note:problem:note-level slur:color=purple	!	!	!
[<8BB@) 8BBB@/)	.	4ff#@/	(8ee@L (>8cc#@\	4f#@\	.	.
*Xtuplet	*	*	*	*	*	*
!LO:S:color=purple	!	!	!	!	!	!LO:HP:b=2:color=purple
(48BB@\LLL]	.	.	8dd@J) 8b@\)	.	.	<
48C#@\	.	.	.	.	.	.
48D@\	.	.	.	.	.	.
48F#@\	.	.	.	.	.	.
48B@\	.	.	.	.	.	.
48d@\JJJ	.	.	.	.	.	.
8f#@\)	.	8.r@	4ryy	4ryy	.	.
8r@	.	.	.	.	.	.
.	.	16bb@ 16b@\	.	.	.	[[
=28	=28	=28	=28	=28	=28	=28
8G@ 8GG@/	.	8eee@L 8ee'@\	4ryy	4ryy	.	.
!	!	!LO:T:color=purple	!	!	!	!
8r@	.	[8ee@J [<8dd@ [<8b-X@@ [<8e@\	.	.	.	.
!LO:S:color=purple	!	!LO:N:vis=8.	!	!	!	!
(4GG@ (4GGG@/	.	16.ee@]LL 16.dd@] 16.b-@] 16.e@\]	4ryy	4ryy	.	.
!	!	!LO:N:vis=16	!	!	!	!
.	.	32ee@JJk 32e@\	.	.	.	.
!	!	!LO:TUP:a:problem:klamra łukowa:color=purple	!	!	!	!
.	.	24ee@LL 24e@\	.	.	.	.
.	.	24dd@ 24d@\	.	.	.	.
.	.	24cc#X@JJ 24c#X@\	.	.	.	.
!LO:T:color=purple	!	!	!LO:S:s=2:note:problem:note-level slur:color=purple	!	!	!
[<8AA@) 8AAA@/)	.	4ee@/	(8dd@L (>8b-@\	4e@\	.	.
!LO:S:color=purple	!	!	!	!	!	!
(48AA@\LLL]	.	.	8cc#@J) 8a@\)	.	.	.
48BB@\	.	.	.	.	.	.
48C#@\	.	.	.	.	.	.
48E@\	.	.	.	.	.	.
48A@\	.	.	.	.	.	.
48c#@\JJJ	.	.	.	.	.	.
8e@\)	.	8.r@	4ryy	4ryy	.	.
8r@	.	.	.	.	.	.
.	.	16a@/	.	.	.	.
*	*	*v	*v	*v	*	*
!!LO:LB:g=original
=29	=29	=29	=29	=29
*^	*	*	*	*
!	!LO:TX:b:t=P:problem:dot.color=purple	!	!LO:TX:a:i:t=a tempo:color=purple	!	!
8r	2.D\	.	8dd\	.	p
4d 4A/	.	.	8f#'/L	.	.
.	.	.	.	.	<
.	.	.	8f#'/	.	.
8d 8A/	.	.	8f#'/J	.	.
8r	.	.	4.a/	.	.
.	.	.	.	.	[
!	!	!	!	!	!LO:HP:b=2
8dL 8A 8F#'\	.	.	.	.	<
8d 8A 8F#'\	4ryy	.	.	.	.
8dJ 8A 8F#'\	.	.	[>8a/	.	[[
*v	*v	*	*	*	*
=30	=30	=30	=30	=30
*	*	*^	*	*^
2.d 2.G 2.E\	.	8a/L]	2ryy	.	<	.
.	.	8a'/	.	.	.	.
.	.	8a'/	.	.	.	.
.	.	8a'/J	.	.	.	.
.	.	4.b/	4ryy	.	.	.
[4G [4E [4AA\	.	.	[4c#\	.	.	sf
.	.	8a/	.	.	[[	.
*	*	*	*	*	*v	*v
=31	=31	=31	=31	=31	=31
*^	*	*	*	*	*
8G]L 8E/]	1AA_	.	[1a	8c#\L]	.	.
8F# 8D#X/	.	.	.	8B#X\	.	.
8F# 8D#/	.	.	.	8B#\	.	.
8F#J 8D#/	.	.	.	8B#\J	.	.
[2G [<2E/	.	.	.	4.d\	.	.
.	.	.	.	8c#\	.	.
*v	*v	*	*	*	*	*
=32	=32	=32	=32	=32	=32
8G] 8E] 8AA\]	.	8a/]	8c#\	.	.
8r@	.	8B#X'/L	8ryy	.	pp
4r@	.	8B#'/	4ryy	.	.
!	!	!LO:TX:b:i:t=rit.:color=purple	!	!	!
.	.	8B#'/J	.	.	.
2r@	.	(8d/L	2ryy	.	.
.	.	8c#/J)	.	.	.
.	.	4r	.	.	.
*	*	*v	*v	*	*
!!LO:LB:g=original
=33	=33	=33	=33	=33
!	!	!LO:TX:a:i:t=a tempo:color=purple	!	!LO:DY:color=purple
(16DD\LL	.	8r	.	pp
16AA\	.	.	.	.
!	!	!	!	!LO:HP:color=purple
16D\	.	16r	.	<
16E\JJ	.	(16A/	.	.
16F#\LL	.	16d/LL	.	.
16A\	.	16e/	.	.
16d\	.	16f#/	.	.
16e\JJ	.	16a/JJ	.	.
16f#\LL	.	16dd\LL	.	.
16e\	.	16ee\	.	.
16d\	.	16ff#\	.	.
16A\JJ	.	16aa\JJ	.	.
16F#\LL	.	16ddd\LL	.	.
16E\	.	16eee\	.	.
16D\	.	16fff#\	.	.
16AA\JJ	.	16aaa\JJ	.	.
=34	=34	=34	=34	=34
*	*	*8va	*	*
4DD/)	.	4ffff#\)	.	.
*	*	*X8va	*	*
8r	.	8r	.	[
8f#: 8A: 8D:\	.	8dd: 8a: 8d:/	.	.
4F#:@ 4AA:@ 4DD:@/	.	4dd:@ 4a:@ 4d:@/	.	.
!	!	!LO:TX:b:i:t=Fine.	!	!
4r@	.	4r@	.	.
==	==	==	==	==
*-	*-	*-	*-	*-
!!!system-decoration: {(s1,s2)}
!!!RDF**kern: > = above
!!!RDF**kern: < = below
!!!RDF**kern: @ = marked note, color=purple
!!!AIN: 1 piano
!!!ENC: Andrzej Gręziak
!!!END: 2021-10-27
!!!ENC: Andrzej Kubiczek
!!!END: 2021-10-29
